src/assets/UnLike.svg

<svg width="35" height="30" viewBox="0 0 35 30" fill="none" xmlns="http://www.w3.org/2000/svg">
<path d="M25.0431 0C22.0123 0 19.3224 1.18947 17.5 3.23392C15.6776 1.18947 12.9877 0 9.9569 0C7.31714 0.00317557 4.78642 1.0472 2.91984 2.90308C1.05325 4.75896 0.0031939 7.27516 0 9.89976C0 20.7505 15.9627 29.4203 16.6416 29.7848C16.9054 29.9261 17.2004 30 17.5 30C17.7996 30 18.0946 29.9261 18.3584 29.7848C19.0373 29.4203 35 20.7505 35 9.89976C34.9968 7.27516 33.9468 4.75896 32.0802 2.90308C30.2136 1.0472 27.6829 0.00317557 25.0431 0ZM24.2149 21.3535C22.1138 23.1262 19.8677 24.7217 17.5 26.1234C15.1323 24.7217 12.8862 23.1262 10.7851 21.3535C7.51595 18.5651 3.62069 14.3127 3.62069 9.89976C3.62069 8.22894 4.28825 6.62655 5.47652 5.4451C6.66479 4.26365 8.27643 3.59991 9.9569 3.59991C12.6422 3.59991 14.8901 5.00988 15.8239 7.28083C15.9598 7.61188 16.1919 7.89518 16.4904 8.0946C16.7889 8.29402 17.1404 8.40052 17.5 8.40052C17.8596 8.40052 18.2111 8.29402 18.5096 8.0946C18.8081 7.89518 19.0402 7.61188 19.1761 7.28083C20.1099 5.00988 22.3578 3.59991 25.0431 3.59991C26.7236 3.59991 28.3352 4.26365 29.5235 5.4451C30.7117 6.62655 31.3793 8.22894 31.3793 9.89976C31.3793 14.3127 27.4841 18.5651 24.2149 21.3535Z" fill="#F24E1E"/>
</svg>

<svg xmlns="http://www.w3.org/2000/svg" width="35" height="30" fill="none"><path fill="#F24E1E" d="M25.043 0c-3.03 0-5.72 1.19-7.543 3.234C15.678 1.189 12.988 0 9.957 0A10 10 0 0 0 2.92 2.903 9.88 9.88 0 0 0 0 9.9c0 10.85 15.963 19.52 16.642 19.885a1.82 1.82 0 0 0 1.716 0C19.038 29.42 35 20.75 35 9.9a9.88 9.88 0 0 0-2.92-6.997A10 10 0 0 0 25.043 0m-.828 21.354a49.6 49.6 0 0 1-6.715 4.77 49.6 49.6 0 0 1-6.715-4.77C7.516 18.565 3.621 14.313 3.621 9.9c0-1.671.667-3.273 1.856-4.455A6.36 6.36 0 0 1 9.957 3.6c2.685 0 4.933 1.41 5.867 3.68.136.332.368.615.666.815a1.818 1.818 0 0 0 2.686-.814C20.11 5.01 22.358 3.6 25.043 3.6c1.68 0 3.292.664 4.48 1.845A6.28 6.28 0 0 1 31.38 9.9c0 4.413-3.895 8.665-7.164 11.454"/></svg>
